src/assets/images/services/TRM-labs.svg

<svg width="36" height="36" viewBox="0 0 36 36" fill="none" xmlns="http://www.w3.org/2000/svg">
<rect width="36" height="36" fill="white"/>
<circle cx="18" cy="18" r="18" fill="#F4F4F4"/>
<path d="M20.4155 30.3608C20.4155 29.1382 19.5358 28.1093 18.3728 27.9155V21.3101C19.0586 21.2356 19.5954 20.9672 20.1471 20.5646L25.3211 25.7386C24.9185 26.4245 24.9781 27.3787 25.5895 27.9155C26.2753 28.6014 27.4235 28.6014 28.1093 27.9155C28.7952 27.2296 28.7952 26.0815 28.1093 25.3956C27.498 24.7843 26.6183 24.7097 25.9324 25.1272L20.7584 19.9533C21.161 19.4761 21.4443 18.8648 21.504 18.1789H28.1093C28.3181 19.3419 29.332 20.2217 30.5547 20.2217C31.9115 20.2217 33 19.1332 33 17.7763C33 16.4195 31.7773 15.4652 30.4056 15.4652C29.1829 15.4652 28.1541 16.3449 27.9602 17.508H21.3549C21.2803 16.8221 21.0119 16.2107 20.6093 15.7336L25.7833 10.5596C26.4692 10.9622 27.4235 10.9026 27.9602 10.2913C28.6461 9.60537 28.6461 8.45726 27.9602 7.77137C27.2744 7.08549 26.1262 7.08549 25.4404 7.77137C24.829 8.3827 24.7545 9.26243 25.172 9.94831L20.1322 15.1968C19.6551 14.7942 19.0437 14.5109 18.3579 14.4513V7.89066C19.5209 7.68191 20.4006 6.66799 20.4006 5.44533C20.4006 4.08847 19.3121 3 17.9553 3C16.5984 3 15.5099 4.08847 15.5099 5.44533C15.5099 6.66799 16.3897 7.69682 17.5527 7.89066V14.4215C16.8668 14.496 16.2555 14.7644 15.7783 15.167L10.6789 10.0676C11.0815 9.38171 11.0219 8.42744 10.4105 7.89066C9.72465 7.20477 8.57654 7.20477 7.89066 7.89066C7.20477 8.57654 7.20477 9.72465 7.89066 10.4105C8.50199 11.0219 9.38171 11.0964 10.0676 10.6789L15.167 15.7783C14.7644 16.2555 14.4811 16.8668 14.4215 17.5527H7.89066C7.68191 16.3897 6.66799 15.5099 5.44533 15.5099C4.08847 15.5099 3 16.5984 3 17.9553C3 19.3121 4.08847 20.4006 5.44533 20.4006C6.66799 20.4006 7.69682 19.5209 7.89066 18.3579H14.4215C14.496 19.0437 14.7644 19.6551 15.167 20.1322L10.0676 25.2316C9.38171 24.829 8.42743 24.8887 7.89066 25.5C7.20477 26.1859 7.20477 27.334 7.89066 28.0199C8.57654 28.7058 9.72465 28.7058 10.4105 28.0199C11.0219 27.4085 11.0964 26.5288 10.6789 25.8429L15.8529 20.669C16.33 21.0716 16.9414 21.3549 17.6272 21.4145V28.0199C16.4642 28.2286 15.5845 29.2425 15.5845 30.4652C15.5845 31.8221 16.673 32.9105 18.0298 32.9105C19.327 32.8807 20.4155 31.7177 20.4155 30.3608Z" fill="#071C2C"/>
</svg>

<svg xmlns="http://www.w3.org/2000/svg" width="36" height="36" fill="none"><path fill="#fff" d="M0 0h36v36H0z"/><circle cx="18" cy="18" r="18" fill="#F4F4F4"/><path fill="#071C2C" d="M20.416 30.36c0-1.222-.88-2.25-2.043-2.444V21.31c.686-.074 1.222-.343 1.774-.745l5.174 5.174c-.402.685-.343 1.64.268 2.177a1.8 1.8 0 0 0 2.52 0 1.8 1.8 0 0 0 0-2.52 1.75 1.75 0 0 0-2.177-.269l-5.174-5.174a3.2 3.2 0 0 0 .746-1.774h6.605a2.48 2.48 0 0 0 2.446 2.043A2.437 2.437 0 0 0 33 17.776c0-1.357-1.223-2.31-2.594-2.31-1.223 0-2.252.879-2.446 2.042h-6.605a3.3 3.3 0 0 0-.746-1.774l5.174-5.174c.686.402 1.64.343 2.177-.269a1.8 1.8 0 0 0 0-2.52 1.8 1.8 0 0 0-2.52 0 1.75 1.75 0 0 0-.268 2.177l-5.04 5.249a3.2 3.2 0 0 0-1.774-.746v-6.56A2.48 2.48 0 0 0 20.4 5.445 2.437 2.437 0 0 0 17.955 3a2.437 2.437 0 0 0-2.445 2.445c0 1.223.88 2.252 2.043 2.446v6.53a3.3 3.3 0 0 0-1.775.746l-5.1-5.1c.403-.685.344-1.64-.268-2.176a1.8 1.8 0 0 0-2.52 0 1.8 1.8 0 0 0 0 2.52 1.75 1.75 0 0 0 2.178.268l5.099 5.1a3.2 3.2 0 0 0-.745 1.774H7.89a2.48 2.48 0 0 0-2.446-2.043A2.437 2.437 0 0 0 3 17.955a2.437 2.437 0 0 0 2.445 2.446c1.223 0 2.252-.88 2.446-2.043h6.53a3.3 3.3 0 0 0 .746 1.774l-5.1 5.1c-.685-.403-1.64-.343-2.176.268a1.8 1.8 0 0 0 0 2.52 1.8 1.8 0 0 0 2.52 0 1.75 1.75 0 0 0 .268-2.177l5.174-5.174a3.2 3.2 0 0 0 1.774.745v6.606a2.48 2.48 0 0 0-2.042 2.445 2.437 2.437 0 0 0 2.445 2.445c1.297-.03 2.386-1.192 2.386-2.55"/></svg>
